_includes/icons/ios-eps-file.svg

<svg fill="#666" height="50" viewBox="0 0 50 50" width="50" xmlns="http://www.w3.org/2000/svg"><path d="m7 2v46h36v-32.585937l-13.589844-13.414063zm2 2h19v13h13v29h-32zm21 1.390625 9.734375 9.609375h-9.734375zm2.101563 19.410156c-2.113282 0-3.195313 1.351563-3.195313 2.96875 0 .917969.527344 1.980469 1.90625 2.824219.855469.550781 1.304688.914063 1.304688 1.644531 0 .664063-.449219 1.140625-1.382813 1.140625-.566406 0-1.257812-.164062-1.660156-.390625l-.289063 1.699219c.332032.191406 1.125.402344 1.9375.402344 1.980469 0 3.34375-1.214844 3.34375-3.058594 0-1.066406-.492187-2.085937-1.828125-2.894531-1.09375-.660156-1.394531-.976563-1.394531-1.574219 0-.542969.402344-1.050781 1.246094-1.050781.566406 0 1.003906.164062 1.285156.34375l.316406-1.695313c-.300781-.179687-.929687-.359375-1.589843-.359375zm-7.605469.042969c-.75 0-1.5.078125-2.054688.199219v9.957031h1.964844v-3.765625h.390625c.8125 0 1.832031-.300781 2.460938-.957031.523437-.574219.851562-1.335938.851562-2.433594 0-.855469-.265625-1.691406-.867187-2.21875-.660157-.613281-1.574219-.78125-2.746094-.78125zm-7.964844.046875v10.109375h4.578125v-1.710937h-2.613281v-2.726563h2.3125v-1.636719h-2.3125v-2.324218h2.429687v-1.710938zm8.355469 1.546875c.914062 0 1.273437.6875 1.273437 1.574219 0 .945312-.449218 1.648437-1.4375 1.648437-.121093 0-.226562 0-.316406-.03125v-3.117187c.121094-.046875.300781-.074219.480469-.074219z"/></svg>

<svg xmlns="http://www.w3.org/2000/svg" viewBox="0 0 50 50" width="50" height="50" fill="#666"><path d="M 7 2 L 7 48 L 43 48 L 43 15.414063 L 29.410156 2 Z M 9 4 L 28 4 L 28 17 L 41 17 L 41 46 L 9 46 Z M 30 5.390625 L 39.734375 15 L 30 15 Z M 32.101563 24.800781 C 29.988281 24.800781 28.90625 26.152344 28.90625 27.769531 C 28.90625 28.6875 29.433594 29.75 30.8125 30.59375 C 31.667969 31.144531 32.117188 31.507813 32.117188 32.238281 C 32.117188 32.902344 31.667969 33.378906 30.734375 33.378906 C 30.167969 33.378906 29.476563 33.214844 29.074219 32.988281 L 28.785156 34.6875 C 29.117188 34.878906 29.910156 35.089844 30.722656 35.089844 C 32.703125 35.089844 34.066406 33.875 34.066406 32.03125 C 34.066406 30.964844 33.574219 29.945313 32.238281 29.136719 C 31.144531 28.476563 30.84375 28.160156 30.84375 27.5625 C 30.84375 27.019531 31.246094 26.511719 32.089844 26.511719 C 32.65625 26.511719 33.09375 26.675781 33.375 26.855469 L 33.691406 25.160156 C 33.390625 24.980469 32.761719 24.800781 32.101563 24.800781 Z M 24.496094 24.84375 C 23.746094 24.84375 22.996094 24.921875 22.441406 25.042969 L 22.441406 35 L 24.40625 35 L 24.40625 31.234375 L 24.796875 31.234375 C 25.609375 31.234375 26.628906 30.933594 27.257813 30.277344 C 27.78125 29.703125 28.109375 28.941406 28.109375 27.84375 C 28.109375 26.988281 27.84375 26.152344 27.242188 25.625 C 26.582031 25.011719 25.667969 24.84375 24.496094 24.84375 Z M 16.53125 24.890625 L 16.53125 35 L 21.109375 35 L 21.109375 33.289063 L 18.496094 33.289063 L 18.496094 30.5625 L 20.808594 30.5625 L 20.808594 28.925781 L 18.496094 28.925781 L 18.496094 26.601563 L 20.925781 26.601563 L 20.925781 24.890625 Z M 24.886719 26.4375 C 25.800781 26.4375 26.160156 27.125 26.160156 28.011719 C 26.160156 28.957031 25.710938 29.660156 24.722656 29.660156 C 24.601563 29.660156 24.496094 29.660156 24.40625 29.628906 L 24.40625 26.511719 C 24.527344 26.464844 24.707031 26.4375 24.886719 26.4375 Z"/></svg>
